icons/themes/default/folder.svg

<svg viewBox="0 0 21 20" fill="none" xmlns="http://www.w3.org/2000/svg">
<path d="M3 12.4993V7.5C3 5.61438 3 4.67157 3.58579 4.08579C4.17157 3.5 5.11438 3.5 7 3.5H7.48796C8.18845 3.5 8.53869 3.5 8.86234 3.61448C9.18599 3.72896 9.45834 3.94918 10.003 4.38963L10.003 4.38963L11.5183 5.61493C12.0574 6.05083 12.327 6.26878 12.6468 6.38318L12.66 6.38783C12.9806 6.5 13.3273 6.5 14.0205 6.5C15.8862 6.5 16.819 6.5 17.4028 7.07444L17.4256 7.09723C18 7.681 18 8.61383 18 10.4795V12.4993C18 14.3849 18 15.3277 17.4142 15.9135C16.8284 16.4993 15.8856 16.4993 14 16.4993H7C5.11438 16.4993 4.17157 16.4993 3.58579 15.9135C3 15.3277 3 14.3849 3 12.4993Z" stroke="currentColor" stroke-width="1.1"/>
</svg>

<svg xmlns="http://www.w3.org/2000/svg" fill="none" viewBox="0 0 21 20">
  <path stroke="currentColor" stroke-width="1.1" d="M3 12.5v-5c0-1.886 0-2.828.586-3.414C4.172 3.5 5.114 3.5 7 3.5h.488c.7 0 1.05 0 1.374.114.324.115.596.335 1.141.776l1.515 1.225c.54.436.809.654 1.129.768l.013.005c.32.112.667.112 1.36.112 1.866 0 2.799 0 3.383.574l.023.023C18 7.681 18 8.614 18 10.48v2.02c0 1.886 0 2.829-.586 3.415-.586.585-1.528.585-3.414.585H7c-1.886 0-2.828 0-3.414-.585C3 15.328 3 14.384 3 12.498Z"/>
</svg>
